app/img/step-1/var-2.svg

<svg width="90" height="90" viewBox="0 0 90 90" fill="none" xmlns="http://www.w3.org/2000/svg">
<path d="M36 0H9C8.17162 0 7.5 0.671625 7.5 1.5V87H37.5V1.5C37.5 0.671625 36.8284 0 36 0Z" fill="#FF6B6B"/>
<path d="M57.4125 23.6895L37.5 18V87H58.5V25.131C58.4996 24.4616 58.056 23.8736 57.4125 23.6895Z" fill="#FF9F00"/>
<path d="M69.6705 38.586L58.5 33V87H70.5V39.927C70.4996 39.3591 70.1786 38.8399 69.6705 38.586Z" fill="#FDBF00"/>
<path d="M81 78C83.4853 78 85.5 75.3137 85.5 72C85.5 68.6863 83.4853 66 81 66C78.5147 66 76.5 68.6863 76.5 72C76.5 75.3137 78.5147 78 81 78Z" fill="#80D261"/>
<path d="M79.5 73.5H82.5V88.5H79.5V73.5Z" fill="#DADADA"/>
<path d="M0 87H90V90H0V87Z" fill="#B7B7B7"/>
<path d="M7.5 7.5H22.5V10.5H7.5V7.5Z" fill="#ABD3F3"/>
<path d="M7.5 16.5H22.5V19.5H7.5V16.5Z" fill="#ABD3F3"/>
<path d="M7.5 25.5H22.5V28.5H7.5V25.5Z" fill="#ABD3F3"/>
<path d="M7.5 34.5H22.5V37.5H7.5V34.5Z" fill="#ABD3F3"/>
<path d="M7.5 43.5H22.5V46.5H7.5V43.5Z" fill="#ABD3F3"/>
<path d="M7.5 52.5H22.5V55.5H7.5V52.5Z" fill="#ABD3F3"/>
<path d="M7.5 61.5H22.5V64.5H7.5V61.5Z" fill="#ABD3F3"/>
<path d="M7.5 70.5H22.5V73.5H7.5V70.5Z" fill="#ABD3F3"/>
<path d="M7.5 79.5H22.5V82.5H7.5V79.5Z" fill="#ABD3F3"/>
<path d="M37.5 25.5H49.5V28.5H37.5V25.5Z" fill="#ABD3F3"/>
<path d="M37.5 34.5H49.5V37.5H37.5V34.5Z" fill="#ABD3F3"/>
<path d="M37.5 43.5H49.5V46.5H37.5V43.5Z" fill="#ABD3F3"/>
<path d="M37.5 52.5H49.5V55.5H37.5V52.5Z" fill="#ABD3F3"/>
<path d="M37.5 61.5H49.5V64.5H37.5V61.5Z" fill="#ABD3F3"/>
<path d="M37.5 70.5H49.5V73.5H37.5V70.5Z" fill="#ABD3F3"/>
<path d="M37.5 79.5H49.5V82.5H37.5V79.5Z" fill="#ABD3F3"/>
<path d="M58.5 43.5H64.5V46.5H58.5V43.5Z" fill="#ABD3F3"/>
<path d="M58.5 52.5H64.5V55.5H58.5V52.5Z" fill="#ABD3F3"/>
<path d="M58.5 61.5H64.5V64.5H58.5V61.5Z" fill="#ABD3F3"/>
<path d="M58.5 70.5H64.5V73.5H58.5V70.5Z" fill="#ABD3F3"/>
<path d="M58.5 79.5H64.5V82.5H58.5V79.5Z" fill="#ABD3F3"/>
</svg>

<svg width="90" height="90" fill="none" xmlns="http://www.w3.org/2000/svg"><path d="M36 0H9a1.5 1.5 0 00-1.5 1.5V87h30V1.5A1.5 1.5 0 0036 0z" fill="#FF6B6B"/><path d="M57.413 23.69L37.5 18v69h21V25.131a1.5 1.5 0 00-1.087-1.442z" fill="#FF9F00"/><path d="M69.67 38.586L58.5 33v54h12V39.927a1.5 1.5 0 00-.83-1.341z" fill="#FDBF00"/><path d="M81 78c2.485 0 4.5-2.686 4.5-6s-2.015-6-4.5-6-4.5 2.686-4.5 6 2.015 6 4.5 6z" fill="#80D261"/><path d="M79.5 73.5h3v15h-3v-15z" fill="#DADADA"/><path d="M0 87h90v3H0v-3z" fill="#B7B7B7"/><path d="M7.5 7.5h15v3h-15v-3zM7.5 16.5h15v3h-15v-3zM7.5 25.5h15v3h-15v-3zM7.5 34.5h15v3h-15v-3zM7.5 43.5h15v3h-15v-3zM7.5 52.5h15v3h-15v-3zM7.5 61.5h15v3h-15v-3zM7.5 70.5h15v3h-15v-3zM7.5 79.5h15v3h-15v-3zM37.5 25.5h12v3h-12v-3zM37.5 34.5h12v3h-12v-3zM37.5 43.5h12v3h-12v-3zM37.5 52.5h12v3h-12v-3zM37.5 61.5h12v3h-12v-3zM37.5 70.5h12v3h-12v-3zM37.5 79.5h12v3h-12v-3zM58.5 43.5h6v3h-6v-3zM58.5 52.5h6v3h-6v-3zM58.5 61.5h6v3h-6v-3zM58.5 70.5h6v3h-6v-3zM58.5 79.5h6v3h-6v-3z" fill="#ABD3F3"/></svg>
